X:0906
T:Dalkeith's Strathspey
P:Dalkeith's Strathspey
C:Niel Gow's 3rd collection (as a reel)
R:Strathspey (8x32)
B:RSCDS 9-6
Z:Anselm Lingnau <anselm@strathspey.org>
M:4/4
L:1/8
K:F
A|"F"F>C A,>C F/F/F A>F|"Gm7"F/F/F B>A G<D D>E|\
  "F"F>C A,>C F/F/F A>c|"Bb"d>f "F"c>f A<F F A|
  "F"F>C A,>C F/F/F A>F|"Gm7"F/F/F B>A G<D D>E|\
  "F"F>C A,>C F/F/F A>c|"Bb"d>f "F"c>f A<F F||
c|"Dm"f>g a>g "F"f>e f>c|"Gm"d/d/d b>a g<d "C7"d>e|\
  "F"f>g a>g f>c "Bb"d>B|"F/C"A>c "C7"G>B "F"A<F F>c|
  "Dm"f>g a>g "F"f>e f>c|"Gm"d/d/d b>a g<d "C7"d>e|\
  "F"f>c a>e f>c "Bb"d>B|"F"A>c "C7"G>B "F"A<F F|]

